static/Icons/location.svg

<svg fill="none" height="24" viewBox="0 0 24 24" width="24" xmlns="http://www.w3.org/2000/svg"><g stroke="#292d32" stroke-width="1.5"><path d="m12.0009 13.4299c1.7231 0 3.12-1.3968 3.12-3.12 0-1.72309-1.3969-3.11996-3.12-3.11996-1.7232 0-3.12004 1.39687-3.12004 3.11996 0 1.7232 1.39684 3.12 3.12004 3.12z" opacity=".4"/><path d="m3.61971 8.49c1.97-8.659998 14.79999-8.649997 16.75999.01 1.15 5.08-2.01 9.38-4.78 12.04-2.01 1.94-5.19 1.94-7.20999 0-2.76-2.66-5.92-6.97-4.77-12.05z"/></g></svg>

<svg width="24" height="24" viewBox="0 0 24 24" fill="none" xmlns="http://www.w3.org/2000/svg">
<path opacity="0.4" d="M12.0009 13.4299C13.724 13.4299 15.1209 12.0331 15.1209 10.3099C15.1209 8.58681 13.724 7.18994 12.0009 7.18994C10.2777 7.18994 8.88086 8.58681 8.88086 10.3099C8.88086 12.0331 10.2777 13.4299 12.0009 13.4299Z" stroke="#292D32" stroke-width="1.5"/>
<path d="M3.61971 8.49C5.58971 -0.169998 18.4197 -0.159997 20.3797 8.5C21.5297 13.58 18.3697 17.88 15.5997 20.54C13.5897 22.48 10.4097 22.48 8.38971 20.54C5.62971 17.88 2.46971 13.57 3.61971 8.49Z" stroke="#292D32" stroke-width="1.5"/>
</svg>
